X: 4
T:Upton-on-Severn Stick Dance
M:6/8
L:1/8
Q:110
R:Jig
Z:Brian Martin <brian_martin12345@yahoo.com> Winterbourn Downs Morris  (rcvd Jan 2003)
K:G
d | dBB BAG | AGA BGE | DGG GBd | edB A2d | dBB BAG | AGA BGE | DGG GBd | AGF G2
||: z | GBd {f}g>zd | edc BAG | GBd {f}g>zd | edB A3 | GBd{f}g2d | edc Bcd | ege dBG | AGF G2 :|
